assets/features/global-acquiring/icon-_active2.svg

<svg width="104" height="104" viewBox="0 0 104 104" fill="none" xmlns="http://www.w3.org/2000/svg">
<g filter="url(#filter0_d_1129_18117)">
<rect x="12" y="4" width="80" height="80" rx="20" fill="white"/>
<path d="M67.1374 52.6972C61.4177 48.1073 59.7582 50.3434 57.2632 52.8973C55.392 54.7686 50.8256 50.9201 46.9772 47.0128C43.1287 43.1055 39.1861 38.3744 41.0927 36.7032C43.6819 34.1023 45.8709 32.5488 41.2928 26.8173C36.7146 21.0858 33.6076 25.4639 31.1126 27.9942C28.1704 30.8305 30.8655 41.6109 41.5752 52.3795C52.285 63.1481 63.0889 65.8078 65.9958 62.8891C68.4908 60.3941 72.963 57.2753 67.1727 52.6855L67.1374 52.6972Z" fill="#7A49E9"/>
<path d="M53.599 30.8225C54.3461 30.0772 55.4125 30.2428 55.4125 30.2428L55.4243 30.2448C58.3301 30.7173 61.0138 32.0919 63.0956 34.174C65.1775 36.2561 66.5521 38.9402 67.025 41.8468C67.025 41.8468 67.1807 42.9135 66.4336 43.6608C66.0461 44.0404 65.5252 44.253 64.9828 44.253C64.4404 44.253 63.9196 44.0404 63.532 43.6608C63.2308 43.3398 63.0288 42.9385 62.9505 42.5053C62.7041 41.1783 62.2724 39.2046 60.1632 37.0948C58.0539 34.985 56.0709 34.565 54.7541 34.3185C54.3208 34.2347 53.9202 34.0296 53.599 33.727C53.2198 33.3387 53.0076 32.8175 53.0076 32.2748C53.0076 31.732 53.2198 31.2108 53.599 30.8225Z" fill="#7CD0E8"/>
<path d="M70.3978 43.6509C70.9359 40.0938 69.284 35.7027 65.4165 31.8321H65.4185C61.5489 27.9654 57.159 26.3131 53.597 26.8415C53.597 26.8415 52.4695 27.0308 51.7342 26.2934C51.3487 25.9064 51.1323 25.3824 51.1323 24.8362C51.1323 24.29 51.3487 23.766 51.7342 23.3791C52.1057 23.0619 52.5596 22.8567 53.0431 22.7875C56.1162 22.336 62.3 22.896 68.326 28.9178C74.3521 34.9396 74.9099 41.129 74.4664 44.207C74.4664 44.207 74.356 45.0194 73.8593 45.5162C73.4721 45.9019 72.948 46.1184 72.4015 46.1184C71.8551 46.1184 71.331 45.9019 70.9438 45.5162C70.2007 44.7808 70.3978 43.6509 70.3978 43.6509Z" fill="#7CD0E8"/>
</g>
<defs>
<filter id="filter0_d_1129_18117" x="0" y="0" width="104" height="104" filterUnits="userSpaceOnUse" color-interpolation-filters="sRGB">
<feFlood flood-opacity="0" result="BackgroundImageFix"/>
<feColorMatrix in="SourceAlpha" type="matrix" values="0 0 0 0 0 0 0 0 0 0 0 0 0 0 0 0 0 0 127 0" result="hardAlpha"/>
<feOffset dy="8"/>
<feGaussianBlur stdDeviation="6"/>
<feComposite in2="hardAlpha" operator="out"/>
<feColorMatrix type="matrix" values="0 0 0 0 0.586538 0 0 0 0 0.586538 0 0 0 0 0.586538 0 0 0 0.25 0"/>
<feBlend mode="normal" in2="BackgroundImageFix" result="effect1_dropShadow_1129_18117"/>
<feBlend mode="normal" in="SourceGraphic" in2="effect1_dropShadow_1129_18117" result="shape"/>
</filter>
</defs>
</svg>

<svg xmlns="http://www.w3.org/2000/svg" width="104" height="104" fill="none" viewBox="0 0 104 104"><g filter="url(#a)"><rect width="80" height="80" x="12" y="4" fill="#fff" rx="20"/><path fill="#7a49e9" d="M67.137 52.697c-5.72-4.59-7.379-2.354-9.874.2-1.871 1.872-6.437-1.977-10.286-5.884s-7.79-8.639-5.884-10.31c2.589-2.6 4.778-4.154.2-9.886s-7.685-1.353-10.18 1.177c-2.943 2.837-.247 13.617 10.462 24.386 10.71 10.768 21.514 13.428 24.42 10.51 2.496-2.496 6.968-5.615 1.178-10.205z"/><path fill="#7cd0e8" d="M53.599 30.823c.747-.746 1.814-.58 1.814-.58l.011.002a14.03 14.03 0 0 1 11.601 11.602s.156 1.066-.591 1.814a2.073 2.073 0 0 1-2.902 0 2.3 2.3 0 0 1-.581-1.156c-.247-1.327-.679-3.3-2.788-5.41s-4.092-2.53-5.409-2.776a2.33 2.33 0 0 1-1.155-.592 2.08 2.08 0 0 1 0-2.904"/><path fill="#7cd0e8" d="M70.398 43.65c.538-3.556-1.114-7.947-4.981-11.818h.001c-3.87-3.867-8.259-5.519-11.821-4.99 0 0-1.128.189-1.863-.549a2.065 2.065 0 0 1 0-2.914 2.6 2.6 0 0 1 1.31-.591c3.072-.452 9.256.108 15.282 6.13s6.584 12.211 6.14 15.289c0 0-.11.812-.607 1.31a2.065 2.065 0 0 1-2.915 0c-.743-.736-.546-1.866-.546-1.866"/></g><defs><filter id="a" width="104" height="104" x="0" y="0" color-interpolation-filters="sRGB" filterUnits="userSpaceOnUse"><feFlood flood-opacity="0" result="BackgroundImageFix"/><feColorMatrix in="SourceAlpha" result="hardAlpha" values="0 0 0 0 0 0 0 0 0 0 0 0 0 0 0 0 0 0 127 0"/><feOffset dy="8"/><feGaussianBlur stdDeviation="6"/><feComposite in2="hardAlpha" operator="out"/><feColorMatrix values="0 0 0 0 0.586538 0 0 0 0 0.586538 0 0 0 0 0.586538 0 0 0 0.25 0"/><feBlend in2="BackgroundImageFix" result="effect1_dropShadow_1129_18117"/><feBlend in="SourceGraphic" in2="effect1_dropShadow_1129_18117" result="shape"/></filter></defs></svg>
